X:8
T: Fehér fuszulyka virág
O: Torockó
Q: "Andante"
M:4/4
L:1/4
K:C
D<Dd<d | d<A G z | 
A<d A<F | A<G D z | 
A<A G F | A<G D z | 
C/C/C F/F/G/G/ | D<D D z | 

